packages/foundations/assets/icons/functional/images/transportation/airplane_28_inverted.svg

<svg width="28" height="28" viewBox="0 0 28 28" fill="none" xmlns="http://www.w3.org/2000/svg">
<g clip-path="url(#clip0_2214_6628)">
<path fill-rule="evenodd" clip-rule="evenodd" d="M24.2792 9.48361C23.3841 9.77404 22.4902 10.066 21.5976 10.3596C21.0379 10.6033 20.8984 11.0367 21.0379 11.4632C21.1773 11.8897 21.6627 12.1925 22.1415 12.023C23.707 11.514 23.7409 11.4644 25.2691 11.0001C25.6832 12.57 24.8251 14.0637 23.3585 14.5258L18.5897 16.0265L14.878 22.841C14.759 23.0597 14.556 23.2198 14.3153 23.2846L13.8183 23.4193C13.24 23.5751 12.6712 23.1402 12.6703 22.5417L12.6625 17.8911L8.98833 19.0435C7.00646 19.628 5.30283 18.4843 4.74371 17.01L2.67258 11.1378C2.52821 10.7283 2.73558 10.2795 3.14071 10.1228L3.76196 9.88222C4.23358 9.70022 4.76646 9.78247 5.16021 10.0992L7.69246 12.1292L18.2922 8.79984C20.2473 8.17453 22.8265 8.30116 24.2792 9.48361ZM9.55166 13.864C8.90416 14.0722 8.54891 14.7661 8.75716 15.4136C8.96541 16.0611 9.65928 16.4164 10.3068 16.2081C10.9543 15.999 11.3095 15.306 11.1013 14.6585C10.893 14.011 10.1992 13.6557 9.55166 13.864ZM13.3802 12.6309C12.7327 12.8392 12.3775 13.5331 12.5857 14.1797C12.794 14.8281 13.4878 15.1833 14.1353 14.9751C14.7828 14.7659 15.1381 14.0721 14.9298 13.4254C14.7216 12.7779 14.0277 12.4227 13.3802 12.6309ZM17.2092 11.398C16.5617 11.6062 16.2065 12.3001 16.4147 12.9467C16.623 13.5951 17.3168 13.9504 17.9643 13.7421C18.6118 13.533 18.9671 12.8391 18.7588 12.1925C18.5506 11.545 17.8567 11.1897 17.2092 11.398ZM10.8283 4.84808L14.113 8.17745L10.3925 9.44183L8.67928 6.0722C8.44303 5.52445 8.74491 4.89533 9.31891 4.7352L9.85703 4.5847C10.2044 4.48845 10.5772 4.58908 10.8283 4.84808Z" fill="#1A1C1F"/>
</g>
<defs>
<clipPath id="clip0_2214_6628">
<rect width="28" height="28" fill="white"/>
</clipPath>
</defs>
</svg>

<svg xmlns="http://www.w3.org/2000/svg" width="28" height="28" fill="none"><g clip-path="url(#a)"><path fill="#1A1C1F" fill-rule="evenodd" d="M24.28 9.484q-1.344.435-2.682.876c-.56.243-.7.677-.56 1.103.14.427.625.73 1.104.56 1.565-.509 1.599-.559 3.127-1.023.414 1.57-.444 3.064-1.91 3.526l-4.77 1.5-3.711 6.815a.9.9 0 0 1-.563.444l-.497.134a.91.91 0 0 1-1.148-.877l-.008-4.65-3.674 1.152a3.443 3.443 0 0 1-4.244-2.034l-2.071-5.872a.8.8 0 0 1 .468-1.015l.621-.24a1.42 1.42 0 0 1 1.398.216l2.532 2.03 10.6-3.33c1.955-.624 4.534-.498 5.987.685m-14.728 4.38a1.231 1.231 0 1 0 .754 2.344 1.231 1.231 0 0 0-.754-2.344m3.828-1.233a1.23 1.23 0 1 0 .754 2.343 1.23 1.23 0 0 0-.754-2.343m3.83-1.233a1.23 1.23 0 1 0 .753 2.343 1.23 1.23 0 0 0-.754-2.343m-6.382-6.55 3.285 3.33-3.72 1.264-1.714-3.37a.984.984 0 0 1 .64-1.337l.538-.15a.99.99 0 0 1 .971.263" clip-rule="evenodd"/></g><defs><clipPath id="a"><path fill="#fff" d="M0 0h28v28H0z"/></clipPath></defs></svg>
